!!!!SEGMENT: pl-kk--kk-i-310_anonim--piesn-narodowa.krn
!!!cenid: 17xx:2110
!!!COM: Anonim
!!!COM-rismID: pe30004985
!!!CDT:
!!!CNT:
!!!OTL: Pieśń Narodowa
!!!PDT:
!!!AGN: Sacred
!!!SMS-siglum: PL-Kk
!!!SMS-shelfmark: Kk.I.310
!!!SMS-shelfwork: W
!!!SMS-variant:
!!!SMS-altvar:
!!!NIFC-rismSourceID: 1001146216
!!!NIFC-rismChildID: 1001146216
!!!NIFC-islandoraID: pl-kk:5243
!!!URL-pdf-islandora: https://repozytorium.nifc.pl/islandora/object/pl-kk%3A5243/datastream/PDF/view
!!!URL-scan: https://polish.musicsources.pl/pl/lokalizacje/galeria/rekopisy/5929 @EN{Scan on Polish Music Sources Website} @PL{Skany w portalu Dziedzictwo Muzyki Polskiej w otwartym dostępie}
!!!IIIF:
!!!ONB-nifc:
!!!AIN: 1 alto 1 empty 2 tenor
!!!key:
**kern	**text	**text	**kern	**text	**text	**kern	**text	**text	**kern	**text	**text
*part4	*part4	*part4	*part3	*part3	*part3	*part2	*part2	*part2	*part1	*part1	*part1
*staff4	*staff4	*staff4	*staff3	*staff3	*staff3	*staff2	*staff2	*staff2	*staff1	*staff1	*staff1
*Iempty	*	*	*Itenor	*	*	*Itenor	*	*	*Ialto	*	*
*I"Bas	*	*	*I"Tenor 2gi.	*	*	*I"Tenor 1szy.	*	*	*I"Alt.	*	*
*I'B	*	*	*I'T II	*	*	*I'T I	*	*	*I'A	*	*
*clefF4	*	*	*clefC4	*	*	*clefC4	*	*	*clefC3	*	*
*k[f#c#g#d#]	*	*	*k[f#c#g#d#]	*	*	*k[f#c#g#d#]	*	*	*k[f#c#g#d#]	*	*
*E:	*	*	*E:	*	*	*E:	*	*	*E:	*	*
*M3/4	*	*	*M3/4	*	*	*M3/4	*	*	*M3/4	*	*
*>[A,B,B]	*	*	*>[A,B,B]	*	*	*>[A,B,B]	*	*	*>[A,B,B]	*	*
=1	=1	=1	=1	=1	=1	=1	=1	=1	=1	=1	=1
*>A	*	*	*>A	*	*	*>A	*	*	*>A	*	*
*all\right	*	*	*all\right	*	*	*all\right	*	*	*all\right	*	*
!LO:TX:a:t=Powaznie	!	!	!LO:TX:a:t=Powaznie	!	!	!LO:TX:a:t=Poważnie	!	!	!LO:TX:a:t=Poważnie.	!	!
!LO:TX:t=Piesń za Król	!	!	!LO:TX:t=Piesn za Krola.	!	!	!LO:TX:t=Piesń za Krola	!	!	!LO:TX:t=Piesń zaKrola.	!	!
4E\	Niech	Wszech-	4G#/	Niech	Wszech-	4B\	Niech	Wszech-	4e\	1. Niech	2. Wszech-
4GG#/	zy-	-moc-	4B\	zy-	-moc-	4e\	zy-	-moc-	4e\	ży-	-moc-
4AA/	-ie	-ny	4A\	-ie	-ny	4c#\	-ie	-ny	4f#\	-ie	-ny
=2	=2	=2	=2	=2	=2	=2	=2	=2	=2	=2	=2
4.BB/	Pol-	Pa-	4.F#/	Pol-	Pa-	4.B\	Pol-	Pa-	4.d#\	Pol-	Pa-
8BB/	-ski	-nie	8G#/	-ski	-nie	8B\	-ski	-nie	8e\	-ski	-nie
4BB/	Król	nasż	4D#/	Król	nasż	4B\	Król	nasz	4f#\	Król,	nasz
=3	=3	=3	=3	=3	=3	=3	=3	=3	=3	=3	=3
4E\	wiel-	co	4E/	wiel-	co	4B\	wiel-	co	4g#\	wiel-	co
4C#/	-ki	Je-	4E/	-ki	Je-	4e\	-ki	Je-	4g#\	-ki	Je-
4AA/	po-	-go	4F#/	po-	-go	4c#\	po-	-go	4a\	po-	-go
=4	=4	=4	=4	=4	=4	=4	=4	=4	=4	=4	=4
4.BB/	-tęz-	wro-	4.B\	-tęz-	wro-	4.e\	-tęz-	wro-	4.g#\	-tęz-	wro-
8BB#X/	-ny	-gów	8A\	-ny	-gów	8d#\	-ny	-gów	8f#\	-ny	-gów
4C#/	Król	znasż	4G#/	Król	znasz	4e\	Król	znasz	4e\	Król	znasz
!LO:LB:g=original	!	!	!LO:LB:g=original	!	!	!LO:LB:g=original	!	!	!LO:LB:g=original	!	!
=5	=5	=5	=5	=5	=5	=5	=5	=5	=5	=5	=5
4AA/	niech	zgła-	4A/	niech	zgła-	4c#\	niech	zgła-	(8.g#\L	niech	zgła-
.	.	.	.	.	.	.	.	.	16f#\Jk)	.	.
4BB/	zy-	-dzić	4G#/	zy-	-dzić	4B\	zy-	-dzić	4e\	zy-	-dzić
4BB/	-ie	ich	4F#/	-ie	ich	4B\	-ie	ich	4d#\	-ie	ich
=6	=6	=6	=6	=6	=6	=6	=6	=6	=6	=6	=6
4E\	Król	dasż	4G#/	Król	dasż	4B\	Król	dasz	4e\	Król	dasz
4r	.	.	4r	.	.	4r	.	.	4r	.	.
4r	.	.	4r	.	.	4r	.	.	4r	.	.
=7!|:	=7!|:	=7!|:	=7!|:	=7!|:	=7!|:	=7!|:	=7!|:	=7!|:	=7!|:	=7!|:	=7!|:
*>B	*	*	*>B	*	*	*>B	*	*	*>B	*	*
4E\	Dni	Wal-	4B\	Dni	Wal-	4g#\	Dni	Wal-	4b\	Dni	Wal-
4GG#/	Je-	-czą-	4B\	Je-	-czą-	4g#\	Je-	-czą-	4b\	Je-	-czą-
4BB/	-go	-cym	4B\	-go	-cym	4g#\	-go	-cym	4b\	-go	-cym
=8	=8	=8	=8	=8	=8	=8	=8	=8	=8	=8	=8
4.E\	Bo-	sił	4.B\	Bo-	sił	4.g#\	Bo-	sił	4.b\	Bo-	sił
8F#\	-że	daj	8B\	-że	daj	8d#\	-ze	daj	8a\	-że	day
4E\	chroń	lwich	4B\	chroń	lwich	4e\	chroń	lwich	4g#\	chroń	lwich
=9	=9	=9	=9	=9	=9	=9	=9	=9	=9	=9	=9
4BB/	w bo-	zmie-	4B\	w bo-	zmie-	4d#\	w bo-	zmie-	4a\	w bo-	zmie-
4D#/	-ju	-szay	4B\	-ju	-szay	4f#\	-ju	-szay	4a\	-ju	-szaj
4E\	po-	za-	4B\	po-	za-	4e\	po-	za-	4a\	po-	za-
!LO:LB:g=original	!	!	!LO:LB:g=original	!	!	!LO:LB:g=original	!	!	!LO:LB:g=original	!	!
=10	=10	=10	=10	=10	=10	=10	=10	=10	=10	=10	=10
4.F#\	-pro-	-mia-	4.B\	-pro-	-mia-	4.d#\	-pro-	-mia-	4.a\	-pro-	-mia-
8E\	-wadź	-ry	8B\	-wadź	-ry	8e\	-wać	-ry	8g#\	-wadz	-ry
4D#\	dłoń	złych	4B\	dłoń	złych	4f#\	dłoń	złych	4f#\	dłoń	złych
=11	=11	=11	=11	=11	=11	=11	=11	=11	=11	=11	=11
4E\	zwy-	lub	(8B\L	zwy-	lub	4e\	zwy-	lub	4g#\	zwy-	lub
.	.	.	8B#X\J)	.	.	.	.	.	.	.	.
4E\	-cięst-	u-	(8c#\L	-cięst-	u-	4e\	-cięst-	u-	(8a\L	-cięst-	u-
.	.	.	8B#\J)	.	.	.	.	.	8g#\J)	.	.
4E\	-wem	-pa-	(8A\L	-wem	-pa-	(8d#\L	-wem	-pa-	(8f#\L	-wem	-pa-
.	.	.	8G#\J)	.	.	8e\J)	.	.	8e\J)	.	.
=12	=12	=12	=12	=12	=12	=12	=12	=12	=12	=12	=12
4.E\	u-	-mię-	4.B\	u-	-mię-	4.e\	u-	-mię-	4.g#\	u-	-mię-
8C#/	-więcz	-taj	8E/	-więcz	-tay	8e\	-więcz	-tay	8a\	-więcz	-taj
!	!	!	!LO:N:vis=8	!	!	!	!	!	!	!	!
4GG#/	skroń	ich	4E/	skroń	ich	4e\	skroń	ich	4b\	skroń	ich
=13	=13	=13	=13	=13	=13	=13	=13	=13	=13	=13	=13
*	*	*ij	*	*	*ij	*	*	*ij	*	*	*
4AA/	niech	niech	8.E/L	niech	niech	4c#\	niech	niech	(8.b\L	niech	niech
.	.	.	16F#/Jk	.	.	.	.	.	16a\Jk)	.	.
4BB/	zy-	zy-	4B\	zy-	zy-	4e\	zy-	zy-	4g#\	zy-	zy-
4BB/	-ie	-ie	4A\	-ie	-ie	4d#\	-ie	-ie	4f#\	-ie	-ie
=14	=14	=14	=14	=14	=14	=14	=14	=14	=14	=14	=14
4E\	Król	Król	4G#/	Król	Król	4e\	Król	Król	4e\	Król	Król
*	*	*Xij	*	*	*Xij	*	*	*Xij	*	*	*
4r	.	.	4r	.	.	4r	.	.	4r	.	.
4r	.	.	4r	.	.	4r	.	.	4r	.	.
=:|!	=:|!	=:|!	=:|!	=:|!	=:|!	=:|!	=:|!	=:|!	=:|!	=:|!	=:|!
*-	*-	*-	*-	*-	*-	*-	*-	*-	*-	*-	*-
!!!system-decoration: [(s1,s2,s3,s4)]
!!!ENC: Marta Lawrence
!!!END: 2021-04-09
!!!ENC: Katarzyna Serwa
!!!END: 2021-03-12
!!!YEC: Copyright 2022 Narodowy Instytut Fryderyka Chopina (https://polishscores.org)
!!!YEM: License CC-BY-4.0 (https://creativecommons.org/licenses/by/4.0)
